/* XPM */
static char *xmms_dock_master[] = {
/* columns rows colors chars-per-pixel */
"48 48 189 2 ",
"   c #040204",
".  c #4C6A7C",
"X  c #B40204",
"o  c #24363C",
"O  c #9C9E9C",
"+  c #3C525C",
"@  c #7C7A7C",
"#  c #5C7E94",
"$  c #545254",
"%  c #141E24",
"&  c #646A6C",
"*  c #445E6C",
"=  c #344244",
"-  c #545E64",
";  c #64767C",
":  c #3C464C",
">  c #0C1214",
",  c #547684",
"<  c #4C5254",
"1  c #8C8E8C",
"2  c #1C2A2C",
"3  c #343634",
"4  c #54666C",
"5  c #4C4A4C",
"6  c #5C6A74",
"7  c #6C7E8C",
"8  c #ACAEAC",
"9  c #445A64",
"0  c #242224",
"q  c #64727C",
"w  c #C4C6C4",
"e  c #3C4E5C",
"r  c #1C1A1C",
"t  c #848684",
"y  c #5C5E5C",
"u  c #747674",
"i  c #141A1C",
"p  c #949694",
"a  c #040A0C",
"s  c #2C3E44",
"d  c #445254",
"f  c #4C6674",
"g  c #4C5A5C",
"h  c #243234",
"j  c #547284",
"k  c #A4A6A4",
"l  c #64869C",
"z  c #545A5C",
"x  c #1C262C",
"c  c #6C6A6C",
"v  c #2C3234",
"b  c #6C7A84",
"n  c #444644",
"m  c #141214",
"M  c #343E44",
"N  c #546A74",
"B  c #2C363C",
"V  c #647E8C",
"C  c #1C1E1C",
"Z  c #3C4244",
"A  c #4C5E64",
"S  c #344A54",
"D  c #C4C2C4",
"F  c #5C7684",
"G  c #242A2C",
"H  c #5C727C",
"J  c #6C8694",
"K  c #646264",
"L  c #7C8284",
"P  c #344654",
"I  c #BCBABC",
"U  c #546264",
"Y  c #4C5664",
"T  c #949294",
"R  c #343A44",
"E  c #5C666C",
"W  c #CCCECC",
"Q  c #8C8A8C",
"!  c #5C626C",
"~  c #9C9A9C",
"^  c #0C0A0C",
"/  c #445664",
"(  c #ACAAAC",
")  c #444A54",
"_  c #546E84",
"`  c #2C3A3C",
"'  c #64829C",
"]  c #1C222C",
"[  c #4C6274",
"{  c #5C7A94",
"}  c #040604",
"|  c #3C5664",
" . c #545654",
".. c #646E7C",
"X. c #2C2E2C",
"o. c #34464C",
"O. c #647A84",
"+. c #0C1614",
"@. c #4C565C",
"#. c #8C9294",
"$. c #343A3C",
"%. c #4C4E4C",
"&. c #5C6E74",
"*. c #6C828C",
"=. c #B4B6B4",
"-. c #242624",
";. c #6C7274",
":. c #CCCACC",
">. c #444E54",
",. c #848A8C",
"<. c #5C6264",
"1. c #44565C",
"2. c #4C5A6C",
"3. c #A4AAAC",
"4. c #6C6E6C",
"5. c #343234",
"6. c #444A4C",
"7. c #141614",
"8. c #546E7C",
"9. c #648294",
"0. c #1C2224",
"q. c #A4A2A4",
"w. c #B4B2B4",
"e. c #444244",
"r. c #748694",
"t. c #848284",
"y. c #3C3E44",
"u. c #646E74",
"i. c #3C4A54",
"p. c #748E9C",
"a. c #C4CACC",
"s. c #4C626C",
"d. c #5C7A8C",
"f. c #242E34",
"g. c #646664",
"h. c #BCBEBC",
"j. c #0C0E0C",
"k. c #7C7E7C",
"l. c #3C5264",
"z. c #34424C",
"x. c #545E6C",
"c. c #647684",
"v. c #4C525C",
"b. c #8C8E94",
"n. c #1C2A34",
"m. c #34363C",
"M. c #546674",
"N. c #445A6C",
"B. c #647284",
"V. c #84868C",
"C. c #5C5E64",
"Z. c #141A24",
"A. c #94969C",
"S. c #2C3E4C",
"D. c #44525C",
"F. c #4C667C",
"G. c #4C5A64",
"H. c #24323C",
"J. c #A4A6AC",
"K. c #545A64",
"L. c #2C323C",
"P. c #6C7A8C",
"I. c #44464C",
"U. c #343E4C",
"Y. c #546A7C",
"T. c #2C3644",
"R. c #647E94",
"E. c #1C1E24",
"W. c #3C424C",
"Q. c #4C5E6C",
"!. c #5C768C",
"~. c #242A34",
"^. c #5C7284",
"/. c #54626C",
"(. c #5C6674",
"). c #2C3A44",
"_. c #04060C",
"`. c #2C2E34",
"'. c #0C161C",
"]. c #4C4E54",
"[. c #5C6E7C",
"{. c #6C8294",
"}. c #24262C",
"|. c #444E5C",
" X c #6C6E74",
".X c #14161C",
"XX c #64666C",
"oX c #BCBEC4",
"OX c #0C0E14",
/* pixels */
"l l l ' 9.' # 9.# # d.{ d.d.!., !.j j j _ 8.8.. . f f f [ [ * * N.N.9 / | l.+ + e e e S P P P o.",
"l ' l # 9.# 9.# R.# { d.d., !.j j j _ 8._ Y.. M.f F.[ [ [ * * N.9 N./ | D.+ e e e i.S S : o.P z.",
"l 9.# l # 9.# # d.d.d.d., !., j j j _ 8.. . . F.f [ f * * * Q.N./ | | / l.+ e e S S i.P P z.z.S.",
"9.6.5 I.5 I.5 I.5 I.5 I.5 I.5 q._ _ _ Y.. Y.F.f f [ * [ * N.N.| / / l.l.e e e e i.S P P z.P z.z.",
"' 6.R.# 9.d.d.d.d.d., !., j j q._ 8.. . . f f [ [ * Q.* N.N.9 / | | + + e e S S S : P P S.z.S.S.",
"# 5 # X X X X X X X X X X X _ k . 8.. Y.F.f F.* [ * * N.9 N.| / l.D.e e e e S i.P P z.o.z.z.S.s ",
"9.6.# X X X X X X X X X X X . k Y.. F.f f [ [ [ * * N.N.9 / | l.+ + e e S i.S P P z.S.z.S.S.s M ",
"# 5 # # , { , , , j , . j . 8.q.Y.. F.f f [ [ * Q.* N.N./ | D.+ l.e e S i.S P P P z.P z.S.M ).).",
"# 5 q.q.k O J.O J.O J.O k k q.q.. f f [ [ * * * N.N./ | / l.l.+ e e i.S S : P P z.S.S.s S.s ).).",
"# d.d.d.{ , !., j j j j _ . . . F.f [ f * Q.* N.N.9 / / | l.+ e S e S i.P P z.o.S.z.s U.s ).).B ",
"{ d.d., d., !.j j _ _ 8.. Y.F.f f [ f * [ * N.N.9 | | + + e e e e S P P P P z.S.z.s S.s T.).o T.",
"# d.{ !., ^.j j _ _ 8.. Y.. f F.f * [ * N.* N.N.| / D.e + e e S i.S : P z.o.S.z.S.M ).).).B B H.",
"d.!., !., j j _ _ 8.. . F.. f [ [ [ * * N.N.9 / | l.l.l.e e e S P P P P z.z.S.z.s ).).).o o H.o ",
"{ , !., ^.j j _ _ Y.. Y.f f [ f * Q.* N.N.9 / | D.+ + + e i.S i.P P P z.S.z.S.s ).).).T.L.o L.f.",
"!.!., !.j ^.j _ 8.. Y.. M.F.f [ [ [ * N.9 / | D.l.D.l.e e e S i.S : P z.z.S.s U.).).).B o T.H.H.",
"d.d.R.{.J {.V d.^._ j [.8.8.Y.[.H H [.M.Q.| / N.s.M.M.s.G.+ D.D.G.Q.G.D.i.z.M s : e >.>.: M B f.",
"!.F O.O.O.O.P.c.H [.N 6 M.M.M.[.[.6 6 c.M.N.9 M.6 /.! /.G.D.D.Y - G.K.G.A : S.i.g v.< D.d M B f.",
"!.!.D.        1.7 c.G.E.A N 6 -.      G b s./.q a       >.Y @.:         @.@.i.@.m.      E.) B f.",
"F O.p.W.      B r.J >.H [.[.O.x.}       &.[.6 @..X    j.&.x./ 6 0.      f./.d x.G       $.g m.n.",
"j , {.r.>       6 /.[.[.F.M.H x.v       : q q >.j.    OX6 G.>.6 M }     ^ - - < G       m.@.L.2 ",
"_ _ F r.4       j.M.7 f Q.* N - s.      > q [.>.j.    j.6 1.i.G.Z f.      Z - y.$.      B < h x ",
"_ Y.8.!.r.f.      Z 7 N * Q.f G.(.G       - >.6 j.    j.6 D.o.D.Z v.      C - M $.      3 v.f.] ",
"8.. . 8.*.b a       &.c.s.N.s.@.4 @.      f.: u.OX    j.(.D.o.|.M U 7.      = 6.$.      B < f.0.",
"Y.F.F.Y.^.r.B       0.7 6 Q.Q.|.4 c.j.    } ) &.j.    j.6 |.o.i.$./.M       m z B       B ].~.0.",
". f M.Y.H G.c.0.      >.O.M.Q.e - q M       E &.OX    j.E >.z.i.B <.K.}     G G.m.      v >.G % ",
"F.Y.H F G.4 7 6       ^ &.c.&.D.A q /.    0.6 6 j.    j.4 D.: d $.G.- x     6.@.3       v < G E.",
"Y.8.F 6 i.B.c.7 B       }.; q @.A ..E E.  $./.6 j.    ^ /.@.i.@.m.g - 6.  ^ @.@.m.      v ].G % ",
"f 9 : ^ : s.8.6 M         `.: E.G i.g B z @.< M         M i.Z L.a m.6.g 7.G @.Z 7.      7.B G % ",
"[ 2./ D./ G.Q.4 ; c.&.- D.D.G.x.Q.>.M $.4.B i.G.E /./.<.@.: z.: : M R M ) : y.= ].>.].>.6.v 0.i ",
"/ z.f.;.i.e 9 N.* A |.B Z g.M e D.U.x & m.G s M ).$.M z.U.).B f.}.% E.x }.x x }.h 3 B v G }.% i ",
"S x t @ G S l./ + S f.v w.B f.z.z.f.> k }.i 2 E.> > i x f.f.x > m 4.v a a r j..Xi .X+..X.Xi .X+.",
"o.Z.W f.i S.e e i.S.0.& 1 j.] ).o i j.oX7.a OXC A.:.g.i x x > X.( =.c } 5 a.$ } a a `.> > .X'.m ",
"P x 1 c > h S.z.o ~.OX`.w.x 7.n.] OX3 W  X].X.J.4.6.~ a i > m.h.-.t c K W W c _.7.q.:.5 j.+.m > ",
"+ T.i ,.t..XE.i C.> y.;.y.J.$.7.Z p :.w k.:.:.W O T u ^ a -.I m._.t I D < ~ <.-.w.W 8 j._.> > > ",
"l.z.x OX& ;.> 6.~ 7.~ t j.0.q.0.j.5.=.@ ^ Z k.b.5 c 0.a e.8 5._.a p D 3 } w.g.I $.~ Q   } ^ OXOX",
"+ z.0.> > h.r g.W w.3.g.OXj.C.u OXa t C.a ^ %.~ a a X.T b.r > j.^ h.z a 0 W w.5.} K W q.4. Xa j.",
"e ).z w.t oX.X> }.j.L $ #.p 8 XX'.Z.< `.% i 0.D 1 T w & ^ '.% .Xv ( } ^ v y m } a } -.5.%.C j.^ ",
"S ).].;. XG 0.n.i OXO E.c  X ..Xx f.~.n.f.n..X-.@ ].m j.i 0.x % .X}.m +.> OXOX> > OX^ a a ^ a ^ ",
"e z.h % 0.~.).s ~.i O j.a i % n.h B H.H.L.f.x i > +..X% ] x 0.% % i i i i '.7.+.m > > j.j.OX^ a ",
"+ S z.S.z.S.z.S.x n <.% n.L.H.B T.T.B H.o f.f.n.x x x x x x % 0.C % Z.i .X.X'..X> > > OXa ^ a ^ ",
"+ i.e S i.S P B % t.}.x ).s ).).o o o L.h f.f.n.G x x x ] % 0.% % i % .Xi +.m > > OXj.OXj.a ^ a ",
"e S i.S P o.S.f.0.L % f.).T.).B T.B H.H.f.n.~.G n.x x x % 0.E.% % i i .X'.m > > > OXj.^ a ^ a a ",
"e S S P P P ).~.z 5 x o ).).o o H.H.H.f.f.~.n.n.x x ] 0.] % % i i i .X+.> '.> OXOXj.a a ^ a } ^ ",
"i.S : P o.z.).f.V.x f.T.` T.L.o L.H.f.f.~.n.G x x ] 0.% E.% i Z.i .X.X'.m > OXOXj.j.^ a ^ _.}   ",
"S P P z.z.z.).o B f.o T.o o H.L.H.f.f.n.n.G x x 0.0.% 0.% i % .X.X'.+.m > OX> j.a a ^ a } } } } ",
": P P z.z.S.s ).o T.o T.H.B H.H.f.n.f.~.2 x x ] ] 0.% % Z.i i .X+.7.> > OXj.j.a ^ ^ a ^ } _.}   ",
"P z.z.S.S.S.M ).).).T.o B H.h f.f.f.2 n.x x ] 0.% % E.i % .X.X'.7.> > OX> j.^ a ^ a } } } }     ",
"z.P z.S.z.S.).).).B o B H.H.f.f.n.~.x }.x x 0.% E.% % i i .X+.m > > OX> a ^ a ^ a } _.  }       "
};
